src/components/Icon/svg-icon/main/chart-bars-vert.svg

<svg xmlns="http://www.w3.org/2000/svg" width="24" height="24"><path fill="#677078" d="M5 9h3v11H5V9zm5.6-5h2.8v16h-2.8V4zm5.6 9.143H19V20h-2.8v-6.857z"/></svg>

<svg xmlns="http://www.w3.org/2000/svg" width="24" height="24" viewBox="0 0 24 24">
  <path fill="#677078" d="M5,9 L8,9 L8,20 L5,20 L5,9 Z M10.6,4 L13.4,4 L13.4,20 L10.6,20 L10.6,4 Z M16.2,13.1428571 L19,13.1428571 L19,20 L16.2,20 L16.2,13.1428571 Z"/>
</svg>
